X:1
T:The Wealthy Young Farmer
B:Broadwood, L, 1908, English Traditional Songs and Carols, London, Boosey
N:Reprinted by EP Publishing Limited, Rowman & Littlefield, Totowa, New Jersey, 1974
Z:Lucy Broadwood
S:Mr H Burstow, 1893
M:C     %Meter
L:1/8     %
K:G
D2 |G2 G2 B2 G2 |G2 E2 z2 E2 |F2 G2 A2 B2 | c4 z2 
w:Come all you pret-ty fair maids, and lis-ten to my song *
d2 |G2 G2 B2 (AG) |E2 D2 z2 d2 |d3 A A2 B2 | G4 z2 
w:While I re-late a_ sto-ry that does to love be-long. *
d2 |e2 d2 c2 e2 |d2 A2 z2 d2 |c2 B2 A2 G2 | D6
w:'Tis of a bloom-ing dam-sel walked through the fields so gay
A2 |G2 G2 B2 (AG) |E2 D2 z2 B3/2 B/ | d2 A2 A2 B2 | G6 |]
w:And there she met her_ true love, And he un-to her did say